documentation/arc_block.svg

<?xml version="1.0" encoding="UTF-8" standalone="no"?>
<svg
   width="325.53125"
   height="224.70488"
   version="1.1"
   id="svg26"
   sodipodi:docname="arc_block.svg"
   inkscape:version="1.4 (86a8ad7, 2024-10-11)"
   xmlns:inkscape="http://www.inkscape.org/namespaces/inkscape"
   xmlns:sodipodi="http://sodipodi.sourceforge.net/DTD/sodipodi-0.dtd"
   xmlns="http://www.w3.org/2000/svg"
   xmlns:svg="http://www.w3.org/2000/svg">
  <defs
     id="defs26" />
  <sodipodi:namedview
     id="namedview26"
     pagecolor="#ffffff"
     bordercolor="#999999"
     borderopacity="1"
     inkscape:showpageshadow="2"
     inkscape:pageopacity="0"
     inkscape:pagecheckerboard="0"
     inkscape:deskcolor="#d1d1d1"
     inkscape:zoom="2"
     inkscape:cx="162.5"
     inkscape:cy="112.5"
     inkscape:window-width="1920"
     inkscape:window-height="1001"
     inkscape:window-x="-9"
     inkscape:window-y="-9"
     inkscape:window-maximized="1"
     inkscape:current-layer="svg26" />
  <g
     transform="translate(0.04670577,0.03082716)"
     id="g3">
    <g
       transform="scale(1.5)"
       id="g2">
      <path
         d="m 0.5,8.5 v -4 a 4,4 90 0 1 4,-4 h 4 v 2 h 10 v -2 h 83 4 a 4,4 90 0 1 4,4 v 4 h -4 v -3 h -4 v 10 h 4 v -3 h 4 v 4 a 4,4 90 0 1 -4,4 h -4 -83 -1 v 2 h -8 v -2 h -1 -4 a 4,4 90 0 1 -4,-4 v -4 z"
         style="fill:#fe994f;fill-opacity:1;stroke:#e86b0e;stroke-width:1;stroke-linecap:round;stroke-opacity:1"
         id="path1" />
      <text
         style="font-size:10px;font-family:sans-serif;text-anchor:end;fill:#282828"
         id="text1"><tspan
           x="99"
           y="14"
           id="tspan1">on every note do</tspan></text>
      <text
         style="font-size:6.66667px;font-family:sans-serif;text-anchor:end;fill:#282828"
         id="text2"><tspan
           x="99"
           y="12"
           id="tspan2" /></text>
    </g>
  </g>
  <g
     transform="translate(153.0467,0.03082716)"
     id="g5">
    <g
       transform="scale(1.5)"
       id="g4">
      <path
         d="m 8.5,0.5 h 90 v 20 h -90 v -8 -1 h -6 v 3 h -2 v -8 h 2 v 3 h 6 v -1 z"
         style="fill:#ff664b;fill-opacity:1;stroke:#ea4326;stroke-width:1;stroke-linecap:round;stroke-opacity:1"
         id="path3" />
      <text
         style="font-size:10px;font-family:sans-serif;text-anchor:start;fill:#282828"
         id="text3"><tspan
           x="13"
           y="14"
           id="tspan3">action</tspan></text>
    </g>
  </g>
  <g
     id="g12"
     transform="translate(0.03125,-51.28125)">
    <g
       transform="translate(0,100)"
       id="g7">
      <g
         transform="scale(1.5)"
         id="g6">
        <path
           d="m 0.5,14.5 v -4 a 4,4 90 0 1 4,-4 h 4 l 5,-6 5,6 h 9 59 4 a 4,4 90 0 1 4,4 v 4 h -4 v -3 h -4 v 10 h 4 v -3 h 4 v 4 a 4,4 90 0 1 -4,4 h -4 -59 -1 v 2 h -8 v -2 h -1 -4 a 5,5 90 0 0 -5,5 v 4 4 42 4 a 5,5 90 0 0 5,5 h 4 v 2 h 10 v -2 h 8 v 6 6 4 a 4,4 90 0 1 -4,4 h -4 -9 l -5,6 -5,-6 h -4 a 4,4 90 0 1 -4,-4 v -4 z"
           style="fill:#ffbf00;fill-opacity:1;stroke:#daaf30;stroke-width:1;stroke-linecap:round;stroke-opacity:1"
           id="path5" />
        <text
           style="font-size:10px;font-family:sans-serif;text-anchor:start;fill:#282828"
           id="text5"><tspan
             x="20"
             y="22"
             id="tspan5">action</tspan></text>
        <text
           style="font-size:6.66667px;font-family:sans-serif;text-anchor:end;fill:#282828"
           id="text6"><tspan
             x="84"
             y="6"
             id="tspan6" /></text>
      </g>
    </g>
    <g
       transform="matrix(0.5,0,0,0.5,0,112)"
       id="g11">
      <g
         style="isolation:isolate"
         id="g10">
        <g
           id="レイヤー_2"
           data-name="レイヤー 2">
          <g
             id="Icon">
            <rect
               width="42"
               height="42"
               rx="5"
               ry="5"
               style="opacity:0.4;mix-blend-mode:multiply;fill:#292929"
               id="rect7"
               x="0"
               y="0" />
            <path
               d="m 30.56,29.8 -4.17,-4.16 h 2.26 a 1.035,1.035 0 1 0 0,-2.07 h -4.71 a 1.08,1.08 0 0 0 -1.11,1 v 0 c 0,0 0,0 0,0.06 v 4.64 0 a 1.04,1.04 0 1 0 2.08,0 v -2.19 l 4.19,4.19 a 1,1 0 0 0 1.46,0 1,1 0 0 0 0,-1.47 z"
               style="fill:#ffffff"
               id="path7" />
            <path
               d="m 19.17,24.6 a 1.08,1.08 0 0 0 -1.11,-1 h -4.71 a 1.035,1.035 0 1 0 0,2.07 h 2.25 l -4.16,4.13 a 1.039447,1.039447 0 0 0 1.47,1.47 l 4.18,-4.19 v 2.26 a 1.04,1.04 0 1 0 2.08,0 V 24.7 c 0,0 0,0 0,-0.06 a 0.08,0.08 0 0 1 0,-0.04 z"
               style="fill:#ffffff"
               id="path8" />
            <path
               d="m 23.94,20.5 h 4.7 a 1.04,1.04 0 1 0 0,-2.08 h -2.25 l 4.17,-4.16 a 1,1 0 0 0 0,-1.47 1,1 0 0 0 -1.46,0 L 24.91,17 v -2.28 a 1.04,1.04 0 1 0 -2.08,0 v 4.64 a 0.43,0.43 0 0 0 0,0.05 v 0.05 a 1.09,1.09 0 0 0 1.11,1.04 z"
               style="fill:#ffffff"
               id="path9" />
            <path
               d="m 18.13,13.62 a 1.08,1.08 0 0 0 -1,1.09 V 17 l -4.18,-4.19 a 1,1 0 0 0 -1.47,0 1,1 0 0 0 0,1.46 l 4.16,4.17 h -2.29 a 1.04,1.04 0 1 0 0,2.08 h 4.71 a 1.09,1.09 0 0 0 1.11,-1 c 0,0 0,0 0,-0.06 v -4.75 a 1.07,1.07 0 0 0 -1.04,-1.09 z"
               style="fill:#ffffff"
               id="path10" />
          </g>
        </g>
      </g>
    </g>
  </g>
  <g
     transform="translate(131.03125,57.71875)"
     id="g14">
    <g
       transform="scale(1.5)"
       id="g13">
      <path
         d="m 8.5,0.5 h 90 v 20 h -90 v -8 -1 h -6 v 3 h -2 v -8 h 2 v 3 h 6 v -1 z"
         style="fill:#ff664b;fill-opacity:1;stroke:#ea4326;stroke-width:1;stroke-linecap:round;stroke-opacity:1"
         id="path12" />
      <text
         style="font-size:10px;font-family:sans-serif;text-anchor:start;fill:#282828"
         id="text12"><tspan
           x="13"
           y="14"
           id="tspan12">action</tspan></text>
    </g>
  </g>
  <g
     transform="translate(14.03125,89.71875)"
     id="g17">
    <g
       transform="scale(1.5)"
       id="g16">
      <path
         d="m 0.5,8.5 v -4 a 4,4 90 0 1 4,-4 h 4 v 2 h 10 v -2 h 30 4 a 4,4 90 0 1 4,4 v 4 h -4 v -3 h -4 v 10 h 4 v -3 h 4 v 21 17 h -4 v -3 h -4 v 10 h 4 v -3 h 4 v 4 a 4,4 90 0 1 -4,4 h -4 -30 -1 v 2 h -8 v -2 h -1 -4 a 4,4 90 0 1 -4,-4 v -4 -21 -21 z"
         style="fill:#92a9ff;fill-opacity:1;stroke:#5370dc;stroke-width:1;stroke-linecap:round;stroke-opacity:1"
         id="path14" />
      <text
         style="font-size:10px;font-family:sans-serif;text-anchor:end;fill:#282828"
         id="text14"><tspan
           x="46"
           y="35"
           id="tspan14">arc</tspan></text>
      <text
         style="font-size:6.66667px;font-family:sans-serif;text-anchor:end;fill:#282828"
         id="text15"><tspan
           x="46"
           y="12"
           id="tspan15">angle</tspan></text>
      <text
         style="font-size:6.66667px;font-family:sans-serif;text-anchor:end;fill:#282828"
         id="text16"><tspan
           x="46"
           y="54"
           id="tspan16">radius</tspan></text>
    </g>
  </g>
  <g
     transform="translate(174.03125,121.71875)"
     id="g19">
    <g
       transform="scale(1.5)"
       id="g18">
      <path
         d="m 8.5,0.5 h 60 v 20 h -60 v -8 -1 h -6 v 3 h -2 v -8 h 2 v 3 h 6 v -1 z"
         style="fill:#ff6ea1;fill-opacity:1;stroke:#ff2c76;stroke-width:1;stroke-linecap:round;stroke-opacity:1"
         id="path17" />
      <text
         style="font-size:10px;font-family:sans-serif;text-anchor:start;fill:#282828"
         id="text17"><tspan
           x="13"
           y="14"
           id="tspan17">360</tspan></text>
    </g>
  </g>
  <g
     transform="translate(88.03125,152.71875)"
     id="g21">
    <g
       transform="scale(1.5)"
       id="g20">
      <path
         d="m 8.5,0.5 h 60 v 20 h -60 v -8 -1 h -6 v 3 h -2 v -8 h 2 v 3 h 6 v -1 z"
         style="fill:#ff6ea1;fill-opacity:1;stroke:#ff2c76;stroke-width:1;stroke-linecap:round;stroke-opacity:1"
         id="path19" />
      <text
         style="font-size:10px;font-family:sans-serif;text-anchor:start;fill:#282828"
         id="text19"><tspan
           x="13"
           y="14"
           id="tspan19">100</tspan></text>
    </g>
  </g>
  <g
     transform="translate(88.03125,89.71875)"
     id="g24">
    <g
       transform="scale(1.5)"
       id="g23">
      <path
         d="m 8.5,8.5 v -4 a 4,4 90 0 1 4,-4 h 4 10 30 4 a 4,4 90 0 1 4,4 v 4 h -4 v -3 h -4 v 10 h 4 v -3 h 4 v 17 h -4 v -3 h -4 v 10 h 4 v -3 h 4 v 4 a 4,4 90 0 1 -4,4 h -4 -30 -10 -4 a 4,4 90 0 1 -4,-4 v -4 -21 -1 h -6 v 3 h -2 v -8 h 2 v 3 h 6 z"
         style="fill:#ff6ea1;fill-opacity:1;stroke:#ff2c76;stroke-width:1;stroke-linecap:round;stroke-opacity:1"
         id="path21" />
      <text
         style="font-size:14px;font-family:sans-serif;text-anchor:end;fill:#282828"
         id="text21"><tspan
           x="54"
           y="24"
           id="tspan21">×</tspan></text>
      <text
         style="font-size:9.33333px;font-family:sans-serif;text-anchor:end;fill:#282828"
         id="text22"><tspan
           x="54"
           y="12"
           id="tspan22" /></text>
      <text
         style="font-size:9.33333px;font-family:sans-serif;text-anchor:end;fill:#282828"
         id="text23"><tspan
           x="54"
           y="33"
           id="tspan23" /></text>
    </g>
  </g>
  <g
     transform="translate(174.03125,89.71875)"
     id="g26">
    <g
       transform="scale(1.5)"
       id="g25">
      <path
         d="m 8.5,0.5 h 92 v 20 h -92 v -8 -1 h -6 v 3 h -2 v -8 h 2 v 3 h 6 v -1 z"
         style="fill:#fe994f;fill-opacity:1;stroke:#e86b0e;stroke-width:1;stroke-linecap:round;stroke-opacity:1"
         id="path24" />
      <text
         style="font-size:10px;font-family:sans-serif;text-anchor:start;fill:#282828"
         id="text24"><tspan
           x="13"
           y="14"
           id="tspan24">note value</tspan></text>
    </g>
  </g>
</svg>

<svg xmlns="http://www.w3.org/2000/svg" width="325.5" height="275.5"><g transform="translate(0, 0)"><g transform="scale(1.5, 1.5)"><path d="m0.5 8.5 L 0.5 4.5 A 4 4 90 0 1 4.5 0.5 L 8.5 0.5 L 8.5 2.5 L 18.5 2.5 L 18.5 0.5 L 101.5 0.5 L 105.5 0.5 A 4 4 90 0 1 109.5 4.5 L 109.5 8.5 L 105.5 8.5 L 105.5 5.5 L 101.5 5.5 L 101.5 15.5 L 105.5 15.5 L 105.5 12.5 L 109.5 12.5 L 109.5 16.5 A 4 4 90 0 1 105.5 20.5 L 101.5 20.5 L 18.5 20.5 L 17.5 20.5 L 17.5 22.5 L 9.5 22.5 L 9.5 20.5 L 8.5 20.5 L 4.5 20.5 A 4 4 90 0 1 0.5 16.5 L 0.5 12.5 L 0.5 8.5 z" style="fill:#FE994F;fill-opacity:1;stroke:#E86B0E;stroke-width:1;stroke-linecap:round;stroke-opacity:1;" /><text style="font-size:10px;fill:#282828;font-family:sans-serif;text-anchor:end"><tspan x="99" y="14">on every note do</tspan></text><text style="font-size:6.666666666666667px;fill:#282828;font-family:sans-serif;text-anchor:end"><tspan x="99" y="12"></tspan></text></g></g><g transform="translate(153, 0)"><g transform="scale(1.5, 1.5)"><path d="m8.5 0.5 L 98.5 0.5 L 98.5 20.5 L 8.5 20.5 L 8.5 12.5 L 8.5 11.5 L 2.5 11.5 L 2.5 14.5 L 0.5 14.5 L 0.5 6.5 L 2.5 6.5 L 2.5 9.5 L 8.5 9.5 L 8.5 8.5 z" style="fill:#FF664B;fill-opacity:1;stroke:#EA4326;stroke-width:1;stroke-linecap:round;stroke-opacity:1;" /><text style="font-size:10px;fill:#282828;font-family:sans-serif;text-anchor:start"><tspan x="13" y="14">action</tspan></text></g></g><g><g transform="translate(0, 100)"><g transform="scale(1.5, 1.5)"><path d="m0.5 14.5 L 0.5 10.5 A 4 4 90 0 1 4.5 6.5 L 8.5 6.5 L 13.5 0.5 L 18.5 6.5 L 27.5 6.5 L 86.5 6.5 L 90.5 6.5 A 4 4 90 0 1 94.5 10.5 L 94.5 14.5 L 90.5 14.5 L 90.5 11.5 L 86.5 11.5 L 86.5 21.5 L 90.5 21.5 L 90.5 18.5 L 94.5 18.5 L 94.5 22.5 A 4 4 90 0 1 90.5 26.5 L 86.5 26.5 L 27.5 26.5 L 26.5 26.5 L 26.5 28.5 L 18.5 28.5 L 18.5 26.5 L 17.5 26.5 L 13.5 26.5 A 5 5 90 0 0 8.5 31.5 L 8.5 35.5 L 8.5 39.5 L 8.5 81.5 L 8.5 85.5 A 5 5 90 0 0 13.5 90.5 L 17.5 90.5 L 17.5 92.5 L 27.5 92.5 L 27.5 90.5 L 35.5 90.5 L 35.5 96.5 L 35.5 102.5 L 35.5 106.5 A 4 4 90 0 1 31.5 110.5 L 27.5 110.5 L 18.5 110.5 L 13.5 116.5 L 8.5 110.5 L 4.5 110.5 A 4 4 90 0 1 0.5 106.5 L 0.5 102.5 z" style="fill:#FFBF00;fill-opacity:1;stroke:#DAAF30;stroke-width:1;stroke-linecap:round;stroke-opacity:1;" /><text style="font-size:10px;fill:#282828;font-family:sans-serif;text-anchor:start"><tspan x="20" y="22">action</tspan></text><text style="font-size:6.666666666666667px;fill:#282828;font-family:sans-serif;text-anchor:end"><tspan x="84" y="6"></tspan></text></g></g><g transform="translate(0, 112) scale(0.5 0.5)"><g style="isolation:isolate"><g id="レイヤー_2" data-name="レイヤー 2"><g id="Icon"><rect width="42" height="42" rx="5" ry="5" style="fill:#292929;opacity:0.4;mix-blend-mode:multiply"/><path d="M30.56,29.8l-4.17-4.16h2.26a1,1,0,1,0,0-2.07H23.94a1.08,1.08,0,0,0-1.11,1v0s0,0,0,.06v4.64h0a1,1,0,1,0,2.08,0V27.08l4.19,4.19a1,1,0,0,0,1.46,0A1,1,0,0,0,30.56,29.8Z" style="fill:#fff"/><path d="M19.17,24.6a1.08,1.08,0,0,0-1.11-1H13.35a1,1,0,1,0,0,2.07H15.6L11.44,29.8a1,1,0,0,0,1.47,1.47l4.18-4.19v2.26a1,1,0,1,0,2.08,0V24.7s0,0,0-.06A.08.08,0,0,1,19.17,24.6Z" style="fill:#fff"/><path d="M23.94,20.5h4.7a1,1,0,1,0,0-2.08H26.39l4.17-4.16a1,1,0,0,0,0-1.47,1,1,0,0,0-1.46,0L24.91,17V14.72a1,1,0,1,0-2.08,0v4.64a.43.43,0,0,0,0,.05v.05A1.09,1.09,0,0,0,23.94,20.5Z" style="fill:#fff"/><path d="M18.13,13.62a1.08,1.08,0,0,0-1,1.09V17l-4.18-4.19a1,1,0,0,0-1.47,0,1,1,0,0,0,0,1.46l4.16,4.17H13.35a1,1,0,1,0,0,2.08h4.71a1.09,1.09,0,0,0,1.11-1,.08.08,0,0,1,0,0s0,0,0-.06V14.71A1.07,1.07,0,0,0,18.13,13.62Z" style="fill:#fff"/></g></g></g></g></g><g transform="translate(131, 109)"><g transform="scale(1.5, 1.5)"><path d="m8.5 0.5 L 98.5 0.5 L 98.5 20.5 L 8.5 20.5 L 8.5 12.5 L 8.5 11.5 L 2.5 11.5 L 2.5 14.5 L 0.5 14.5 L 0.5 6.5 L 2.5 6.5 L 2.5 9.5 L 8.5 9.5 L 8.5 8.5 z" style="fill:#FF664B;fill-opacity:1;stroke:#EA4326;stroke-width:1;stroke-linecap:round;stroke-opacity:1;" /><text style="font-size:10px;fill:#282828;font-family:sans-serif;text-anchor:start"><tspan x="13" y="14">action</tspan></text></g></g><g transform="translate(14, 141)"><g transform="scale(1.5, 1.5)"><path d="m0.5 8.5 L 0.5 4.5 A 4 4 90 0 1 4.5 0.5 L 8.5 0.5 L 8.5 2.5 L 18.5 2.5 L 18.5 0.5 L 48.5 0.5 L 52.5 0.5 A 4 4 90 0 1 56.5 4.5 L 56.5 8.5 L 52.5 8.5 L 52.5 5.5 L 48.5 5.5 L 48.5 15.5 L 52.5 15.5 L 52.5 12.5 L 56.5 12.5 L 56.5 33.5 L 56.5 50.5 L 52.5 50.5 L 52.5 47.5 L 48.5 47.5 L 48.5 57.5 L 52.5 57.5 L 52.5 54.5 L 56.5 54.5 L 56.5 58.5 A 4 4 90 0 1 52.5 62.5 L 48.5 62.5 L 18.5 62.5 L 17.5 62.5 L 17.5 64.5 L 9.5 64.5 L 9.5 62.5 L 8.5 62.5 L 4.5 62.5 A 4 4 90 0 1 0.5 58.5 L 0.5 54.5 L 0.5 33.5 L 0.5 12.5 L 0.5 8.5 z" style="fill:#92A9FF;fill-opacity:1;stroke:#5370DC;stroke-width:1;stroke-linecap:round;stroke-opacity:1;" /><text style="font-size:10px;fill:#282828;font-family:sans-serif;text-anchor:end"><tspan x="46" y="35">arc</tspan></text><text style="font-size:6.666666666666667px;fill:#282828;font-family:sans-serif;text-anchor:end"><tspan x="46" y="12">angle</tspan></text><text style="font-size:6.666666666666667px;fill:#282828;font-family:sans-serif;text-anchor:end"><tspan x="46" y="54">radius</tspan></text></g></g><g transform="translate(174, 173)"><g transform="scale(1.5, 1.5)"><path d="m8.5 0.5 L 68.5 0.5 L 68.5 20.5 L 8.5 20.5 L 8.5 12.5 L 8.5 11.5 L 2.5 11.5 L 2.5 14.5 L 0.5 14.5 L 0.5 6.5 L 2.5 6.5 L 2.5 9.5 L 8.5 9.5 L 8.5 8.5 z" style="fill:#FF6EA1;fill-opacity:1;stroke:#FF2C76;stroke-width:1;stroke-linecap:round;stroke-opacity:1;" /><text style="font-size:10px;fill:#282828;font-family:sans-serif;text-anchor:start"><tspan x="13" y="14">360</tspan></text></g></g><g transform="translate(88, 204)"><g transform="scale(1.5, 1.5)"><path d="m8.5 0.5 L 68.5 0.5 L 68.5 20.5 L 8.5 20.5 L 8.5 12.5 L 8.5 11.5 L 2.5 11.5 L 2.5 14.5 L 0.5 14.5 L 0.5 6.5 L 2.5 6.5 L 2.5 9.5 L 8.5 9.5 L 8.5 8.5 z" style="fill:#FF6EA1;fill-opacity:1;stroke:#FF2C76;stroke-width:1;stroke-linecap:round;stroke-opacity:1;" /><text style="font-size:10px;fill:#282828;font-family:sans-serif;text-anchor:start"><tspan x="13" y="14">100</tspan></text></g></g><g transform="translate(88, 141)"><g transform="scale(1.5, 1.5)"><path d="m8.5 8.5 L 8.5 4.5 A 4 4 90 0 1 12.5 0.5 L 16.5 0.5 L 26.5 0.5 L 56.5 0.5 L 60.5 0.5 A 4 4 90 0 1 64.5 4.5 L 64.5 8.5 L 60.5 8.5 L 60.5 5.5 L 56.5 5.5 L 56.5 15.5 L 60.5 15.5 L 60.5 12.5 L 64.5 12.5 L 64.5 29.5 L 60.5 29.5 L 60.5 26.5 L 56.5 26.5 L 56.5 36.5 L 60.5 36.5 L 60.5 33.5 L 64.5 33.5 L 64.5 37.5 A 4 4 90 0 1 60.5 41.5 L 56.5 41.5 L 26.5 41.5 L 16.5 41.5 L 12.5 41.5 A 4 4 90 0 1 8.5 37.5 L 8.5 33.5 L 8.5 12.5 L 8.5 11.5 L 2.5 11.5 L 2.5 14.5 L 0.5 14.5 L 0.5 6.5 L 2.5 6.5 L 2.5 9.5 L 8.5 9.5 L 8.5 8.5 z" style="fill:#FF6EA1;fill-opacity:1;stroke:#FF2C76;stroke-width:1;stroke-linecap:round;stroke-opacity:1;" /><text style="font-size:14px;fill:#282828;font-family:sans-serif;text-anchor:end"><tspan x="54" y="24">×</tspan></text><text style="font-size:9.333333333333334px;fill:#282828;font-family:sans-serif;text-anchor:end"><tspan x="54" y="12"></tspan></text><text style="font-size:9.333333333333334px;fill:#282828;font-family:sans-serif;text-anchor:end"><tspan x="54" y="33"></tspan></text></g></g><g transform="translate(174, 141)"><g transform="scale(1.5, 1.5)"><path d="m8.5 0.5 L 100.5 0.5 L 100.5 20.5 L 8.5 20.5 L 8.5 12.5 L 8.5 11.5 L 2.5 11.5 L 2.5 14.5 L 0.5 14.5 L 0.5 6.5 L 2.5 6.5 L 2.5 9.5 L 8.5 9.5 L 8.5 8.5 z" style="fill:#FE994F;fill-opacity:1;stroke:#E86B0E;stroke-width:1;stroke-linecap:round;stroke-opacity:1;" /><text style="font-size:10px;fill:#282828;font-family:sans-serif;text-anchor:start"><tspan x="13" y="14">note value</tspan></text></g></g></svg>
